src/assets/svg/icons/fa/nuevos/classic/light/trash-check classic light.svg

<svg xmlns="http://www.w3.org/2000/svg" viewBox="0 0 448 512"><path d="M203.3 363.3C197.1 369.6 186.9 369.6 180.7 363.3L116.7 299.3C110.4 293.1 110.4 282.9 116.7 276.7C122.9 270.4 133.1 270.4 139.3 276.7L192 329.4L308.7 212.7C314.9 206.4 325.1 206.4 331.3 212.7C337.6 218.9 337.6 229.1 331.3 235.3L203.3 363.3zM310.1 22.56L336.9 64H432C440.8 64 448 71.16 448 80C448 88.84 440.8 96 432 96H413.7L388.2 452.6C385.9 486.1 357.1 512 324.4 512H123.6C90.01 512 62.15 486.1 59.75 452.6L34.29 96H16C7.164 96 0 88.84 0 80C0 71.16 7.164 64 16 64H111.1L137 22.56C145.8 8.526 161.2 0 177.7 0H270.3C286.8 0 302.2 8.526 310.1 22.56V22.56zM148.9 64H299.1L283.8 39.52C280.9 34.84 275.8 32 270.3 32H177.7C172.2 32 167.1 34.84 164.2 39.52L148.9 64zM91.67 450.3C92.87 467 106.8 480 123.6 480H324.4C341.2 480 355.1 467 356.3 450.3L381.6 96H66.37L91.67 450.3z"/></svg>

<svg xmlns="http://www.w3.org/2000/svg" viewBox="0 0 448 512"><!--! Font Awesome Pro 6.4.0 by @fontawesome - https://fontawesome.com License - https://fontawesome.com/license (Commercial License) Copyright 2023 Fonticons, Inc. --><path d="M164.2 39.5L148.9 64H299.1L283.8 39.5c-2.9-4.7-8.1-7.5-13.6-7.5H177.7c-5.5 0-10.6 2.8-13.6 7.5zM311 22.6L336.9 64h47.1H416h16c8.8 0 16 7.2 16 16s-7.2 16-16 16H413.7L388.2 452.6C385.9 486.1 358 512 324.4 512H123.6c-33.6 0-61.4-25.9-63.8-59.4L34.3 96H16C7.2 96 0 88.8 0 80s7.2-16 16-16H32 64.1h47.1L137 22.6C145.8 8.5 161.2 0 177.7 0h92.5c16.6 0 31.9 8.5 40.7 22.6zM66.4 96L91.7 450.3C92.9 467 106.8 480 123.6 480H324.4c16.8 0 30.7-13 31.9-29.7L381.6 96H66.4zM331.3 235.3l-128 128c-6.2 6.2-16.4 6.2-22.6 0l-64-64c-6.2-6.2-6.2-16.4 0-22.6s16.4-6.2 22.6 0L192 329.4 308.7 212.7c6.2-6.2 16.4-6.2 22.6 0s6.2 16.4 0 22.6z"/></svg>
